X: 40
T:Difyrrwch Gwyr Margam
T:The Delight of the Men of Margam
M:6/8
L:1/8
Q:120
S:Robin Huw Bowen
R:Jig
A:Wales
Z:brian_martin12345@yahoo.com
K:F
F|FAc cAF|Bddd2e|fed cAF|EGGG2:||!
c|fdB cAF|B/A/B/c/d/e/f2e/d/|cdB AFD|E/F/GF/E/F2:||
